X: 15793
T: Goodbye To Ocean Boulevard
R: slip jig
M: 9/8
K: Dmajor
|:adf edB def|adf edB dBA|adf edB def|~d3 dBA ABd:|
|:BAF FED EFA|BAF FED A,B,D|~E3 EDE F2A|dcB BAF EFA:|

